;FLAVOR:Marlin
;TIME:11212
;Filament used: 7.78581m
;Layer height: 0.2
;MINX:67.599
;MINY:57.991
;MINZ:0.2
;MAXX:183.199
;MAXY:123.591
;MAXZ:25
;Generated with Cura_SteamEngine 4.8.0
M140 S60
M105
M190 S60
M104 S200
M105
M109 S200
M82 ;absolute extrusion mode
; Ender 3 Custom Start G-code
G92 E0 ; Reset Extruder
G28 ; Home all axes
G1 Z2.0 F3000 ; Move Z Axis up little to prevent scratching of Heat Bed
G1 X0.1 Y20 Z0.3 F5000.0 ; Move to start position
G1 X0.1 Y200.0 Z0.3 F1500.0 E15 ; Draw the first line
G1 X0.4 Y200.0 Z0.3 F5000.0 ; Move to side a little
G1 X0.4 Y20 Z0.3 F1500.0 E30 ; Draw the second line
G92 E0 ; Reset Extruder
G1 Z2.0 F3000 ; Move Z Axis up little to prevent scratching of Heat Bed
G1 X5 Y20 Z0.3 F5000.0 ; Move over to prevent blob squish
G92 E0
G92 E0
G1 F2700 E-5
;LAYER_COUNT:125
;LAYER:0
M107
G0 F6000 X69.479 Y60.83 Z0.2
;TYPE:SKIRT
G1 F2700 E0
G1 F1200 X69.884 Y60.393 E0.01982
G1 X70.001 Y60.276 E0.02532
G1 X70.587 Y59.746 E0.0516
G1 X71.223 Y59.279 E0.07784
G1 X71.903 Y58.878 E0.1041
G1 X72.621 Y58.548 E0.13038
G1 X73.368 Y58.293 E0.15664
G1 X74.137 Y58.114 E0.1829
G1 X74.921 Y58.014 E0.20918
G1 X75.516 Y57.991 E0.22899
G1 X175.282 Y57.991 E3.54722
G1 X176.071 Y58.031 E3.57349
G1 X176.851 Y58.15 E3.59974
G1 X177.616 Y58.348 E3.62602
G1 X178.356 Y58.622 E3.65227
G1 X179.065 Y58.97 E3.67853
G1 X179.736 Y59.388 E3.70483
G1 X180.36 Y59.871 E3.73107
G1 X180.797 Y60.276 E3.75089
G1 X180.914 Y60.393 E3.75639
G1 X181.444 Y60.979 E3.78267
G1 X181.911 Y61.615 E3.80892
G1 X182.312 Y62.295 E3.83517
G1 X182.642 Y63.013 E3.86146
G1 X182.897 Y63.76 E3.88771
G1 X183.076 Y64.529 E3.91397
G1 X183.176 Y65.313 E3.94026
G1 X183.199 Y65.908 E3.96006
G1 X183.199 Y69.674 E4.08532
G1 X183.159 Y70.463 E4.11159
G1 X183.04 Y71.243 E4.13784
G1 X182.842 Y72.008 E4.16412
G1 X182.568 Y72.748 E4.19037
G1 X182.22 Y73.457 E4.21663
G1 X181.802 Y74.128 E4.24293
G1 X181.319 Y74.752 E4.26917
G1 X181.199 Y74.881 E4.27503
G1 X181.199 Y104.708 E5.26708
G1 X181.444 Y104.979 E5.27923
G1 X181.911 Y105.615 E5.30548
G1 X182.312 Y106.295 E5.33173
G1 X182.642 Y107.013 E5.35802
G1 X182.897 Y107.76 E5.38427
G1 X183.076 Y108.529 E5.41053
G1 X183.176 Y109.313 E5.43682
G1 X183.199 Y109.908 E5.45662
G1 X183.199 Y115.674 E5.6484
G1 X183.159 Y116.463 E5.67468
G1 X183.04 Y117.243 E5.70092
G1 X182.842 Y118.008 E5.7272
G1 X182.568 Y118.748 E5.75345
G1 X182.22 Y119.457 E5.77972
G1 X181.802 Y120.128 E5.80601
G1 X181.319 Y120.752 E5.83226
G1 X180.914 Y121.189 E5.85207
G1 X180.797 Y121.306 E5.85758
G1 X180.211 Y121.836 E5.88386
G1 X179.575 Y122.303 E5.9101
G1 X178.895 Y122.704 E5.93636
G1 X178.177 Y123.034 E5.96264
G1 X177.43 Y123.289 E5.98889
G1 X176.661 Y123.468 E6.01515
G1 X175.877 Y123.568 E6.04144
G1 X175.282 Y123.591 E6.06124
G1 X75.516 Y123.591 E9.37947
G1 X74.727 Y123.551 E9.40575
G1 X73.947 Y123.432 E9.43199
G1 X73.182 Y123.234 E9.45828
G1 X72.442 Y122.96 E9.48452
G1 X71.733 Y122.612 E9.51079
G1 X71.062 Y122.194 E9.53708
G1 X70.438 Y121.711 E9.56333
G1 X70.001 Y121.306 E9.58315
G1 X69.884 Y121.189 E9.58865
G1 X69.354 Y120.603 E9.61493
G1 X68.887 Y119.967 E9.64117
G1 X68.486 Y119.287 E9.66743
G1 X68.156 Y118.569 E9.69371
G1 X67.901 Y117.822 E9.71996
G1 X67.722 Y117.053 E9.74623
G1 X67.622 Y116.269 E9.77251
G1 X67.599 Y115.674 E9.79232
G1 X67.599 Y109.908 E9.98409
G1 X67.639 Y109.119 E10.01037
G1 X67.758 Y108.339 E10.03661
G1 X67.956 Y107.574 E10.0629
G1 X68.23 Y106.834 E10.08914
G1 X68.578 Y106.125 E10.11541
G1 X68.996 Y105.454 E10.1417
G1 X69.479 Y104.83 E10.16795
G1 X69.599 Y104.701 E10.17381
G1 X69.599 Y74.874 E11.16586
G1 X69.354 Y74.603 E11.17801
G1 X68.887 Y73.967 E11.20425
G1 X68.486 Y73.287 E11.23051
G1 X68.156 Y72.569 E11.25679
G1 X67.901 Y71.822 E11.28305
G1 X67.722 Y71.053 E11.30931
G1 X67.622 Y70.269 E11.33559
G1 X67.599 Y69.674 E11.3554
G1 X67.599 Y65.908 E11.48066
G1 X67.639 Y65.119 E11.50693
G1 X67.758 Y64.339 E11.53318
G1 X67.956 Y63.574 E11.55946
G1 X68.23 Y62.834 E11.5857
G1 X68.578 Y62.125 E11.61197
G1 X68.996 Y61.454 E11.63827
G1 X69.479 Y60.83 E11.66451
G0 F6000 X69.874 Y60.985
G1 F1200 X70.166 Y60.675 E11.67868
G1 X70.283 Y60.558 E11.68418
G1 X70.855 Y60.044 E11.70976
G1 X71.477 Y59.591 E11.73535
G1 X72.142 Y59.205 E11.76092
G1 X72.844 Y58.89 E11.78651
G1 X73.575 Y58.65 E11.8121
G1 X74.326 Y58.487 E11.83766
G1 X75.091 Y58.403 E11.86326
G1 X75.516 Y58.391 E11.8774
G1 X175.282 Y58.391 E15.19563
G1 X176.05 Y58.431 E15.22121
G1 X176.81 Y58.55 E15.2468
G1 X177.553 Y58.748 E15.27237
G1 X178.272 Y59.022 E15.29796
G1 X178.958 Y59.369 E15.32353
G1 X179.605 Y59.785 E15.34912
G1 X180.205 Y60.266 E15.37469
G1 X180.515 Y60.558 E15.38886
G1 X180.632 Y60.675 E15.39436
G1 X181.146 Y61.247 E15.41994
G1 X181.599 Y61.869 E15.44553
G1 X181.985 Y62.534 E15.47111
G1 X182.3 Y63.236 E15.4967
G1 X182.54 Y63.967 E15.52229
G1 X182.703 Y64.718 E15.54785
G1 X182.787 Y65.483 E15.57344
G1 X182.799 Y65.908 E15.58759
G1 X182.799 Y69.674 E15.71284
G1 X182.759 Y70.442 E15.73842
G1 X182.64 Y71.202 E15.76401
G1 X182.442 Y71.945 E15.78958
G1 X182.168 Y72.664 E15.81517
G1 X181.821 Y73.35 E15.84074
G1 X181.405 Y73.997 E15.86633
G1 X180.924 Y74.597 E15.8919
G1 X180.799 Y74.73 E15.89797
G1 X180.799 Y104.861 E16.90014
G1 X181.146 Y105.247 E16.9174
G1 X181.599 Y105.869 E16.94299
G1 X181.985 Y106.534 E16.96857
G1 X182.3 Y107.236 E16.99416
G1 X182.54 Y107.967 E17.01975
G1 X182.703 Y108.718 E17.04531
G1 X182.787 Y109.483 E17.0709
G1 X182.799 Y109.908 E17.08505
G1 X182.799 Y115.674 E17.27682
G1 X182.759 Y116.442 E17.3024
G1 X182.64 Y117.202 E17.32799
G1 X182.442 Y117.945 E17.35356
G1 X182.168 Y118.664 E17.37915
G1 X181.821 Y119.35 E17.40472
G1 X181.405 Y119.997 E17.43031
G1 X180.924 Y120.597 E17.45588
G1 X180.632 Y120.907 E17.47005
G1 X180.515 Y121.024 E17.47555
G1 X179.943 Y121.538 E17.50113
G1 X179.321 Y121.991 E17.52672
G1 X178.656 Y122.377 E17.5523
G1 X177.954 Y122.692 E17.57789
G1 X177.223 Y122.932 E17.60348
G1 X176.472 Y123.095 E17.62904
G1 X175.707 Y123.179 E17.65463
G1 X175.282 Y123.191 E17.66878
G1 X75.516 Y123.191 E20.98701
G1 X74.748 Y123.151 E21.01258
G1 X73.988 Y123.032 E21.03817
G1 X73.245 Y122.834 E21.06375
G1 X72.526 Y122.56 E21.08934
G1 X71.84 Y122.213 E21.11491
G1 X71.193 Y121.797 E21.14049
G1 X70.593 Y121.316 E21.16607
G1 X70.283 Y121.024 E21.18023
G1 X70.166 Y120.907 E21.18573
G1 X69.652 Y120.335 E21.21131
G1 X69.199 Y119.713 E21.2369
G1 X68.813 Y119.048 E21.26248
G1 X68.498 Y118.346 E21.28807
G1 X68.258 Y117.615 E21.31366
G1 X68.095 Y116.864 E21.33922
G1 X68.011 Y116.099 E21.36482
G1 X67.999 Y115.674 E21.37896
G1 X67.999 Y109.908 E21.57074
G1 X68.039 Y109.14 E21.59631
G1 X68.158 Y108.38 E21.6219
G1 X68.356 Y107.637 E21.64748
G1 X68.63 Y106.918 E21.67307
G1 X68.977 Y106.232 E21.69864
G1 X69.393 Y105.585 E21.72422
G1 X69.874 Y104.985 E21.7498
G1 X69.999 Y104.852 E21.75587
G1 X69.999 Y74.721 E22.75803
G1 X69.652 Y74.335 E22.77529
G1 X69.199 Y73.713 E22.80088
G1 X68.813 Y73.048 E22.82646
G1 X68.498 Y72.346 E22.85205
G1 X68.258 Y71.615 E22.87764
G1 X68.095 Y70.864 E22.9032
G1 X68.011 Y70.099 E22.9288
G1 X67.999 Y69.674 E22.94294
G1 X67.999 Y65.908 E23.0682
G1 X68.039 Y65.14 E23.09377
G1 X68.158 Y64.38 E23.11936
G1 X68.356 Y63.637 E23.14493
G1 X68.63 Y62.918 E23.17053
G1 X68.977 Y62.232 E23.1961
G1 X69.393 Y61.585 E23.22168
G1 X69.874 Y60.985 E23.24726
G0 F6000 X69.791 Y61.719
G1 F1200 X70.449 Y60.958 E23.28072
G1 X70.566 Y60.841 E23.28622
G1 X71.123 Y60.341 E23.31112
G1 X71.729 Y59.904 E23.33597
G1 X72.379 Y59.533 E23.36086
G1 X73.065 Y59.234 E23.38575
G1 X73.779 Y59.01 E23.41064
G1 X74.512 Y58.863 E23.4355
G1 X75.516 Y58.791 E23.46898
G1 X175.282 Y58.791 E26.78721
G1 X176.029 Y58.831 E26.81209
G1 X176.767 Y58.95 E26.83696
G1 X177.489 Y59.148 E26.86186
G1 X178.185 Y59.421 E26.88672
G1 X178.848 Y59.768 E26.91161
G1 X179.471 Y60.183 E26.93651
G1 X180.232 Y60.841 E26.96997
G1 X180.349 Y60.958 E26.97547
G1 X180.849 Y61.515 E27.00037
G1 X181.286 Y62.121 E27.02522
G1 X181.657 Y62.771 E27.05011
G1 X181.956 Y63.457 E27.075
G1 X182.18 Y64.171 E27.09989
G1 X182.327 Y64.904 E27.12475
G1 X182.399 Y65.908 E27.15823
G1 X182.399 Y69.674 E27.28349
G1 X182.359 Y70.421 E27.30837
G1 X182.24 Y71.159 E27.33323
G1 X182.042 Y71.881 E27.35813
G1 X181.769 Y72.577 E27.383
G1 X181.422 Y73.24 E27.40789
G1 X181.007 Y73.863 E27.43279
G1 X180.399 Y74.566 E27.4637
G1 X180.399 Y105.014 E28.47641
G1 X180.849 Y105.515 E28.4988
G1 X181.286 Y106.121 E28.52365
G1 X181.657 Y106.771 E28.54855
G1 X181.956 Y107.457 E28.57344
G1 X182.18 Y108.171 E28.59832
G1 X182.327 Y108.904 E28.62319
G1 X182.399 Y109.908 E28.65667
G1 X182.399 Y115.674 E28.84845
G1 X182.359 Y116.421 E28.87333
G1 X182.24 Y117.159 E28.89819
G1 X182.042 Y117.881 E28.92309
G1 X181.769 Y118.577 E28.94796
G1 X181.422 Y119.24 E28.97285
G1 X181.007 Y119.863 E28.99774
G1 X180.349 Y120.624 E29.0312
G1 X180.232 Y120.741 E29.03671
G1 X179.675 Y121.241 E29.0616
G1 X179.069 Y121.678 E29.08645
G1 X178.419 Y122.049 E29.11134
G1 X177.733 Y122.348 E29.13623
G1 X177.019 Y122.572 E29.16112
G1 X176.286 Y122.719 E29.18599
G1 X175.282 Y122.791 E29.21947
G1 X75.516 Y122.791 E32.5377
G1 X74.769 Y122.751 E32.56258
G1 X74.031 Y122.632 E32.58744
G1 X73.309 Y122.434 E32.61234
G1 X72.613 Y122.161 E32.63721
G1 X71.95 Y121.814 E32.6621
G1 X71.327 Y121.399 E32.687
G1 X70.566 Y120.741 E32.72046
G1 X70.449 Y120.624 E32.72596
G1 X69.949 Y120.067 E32.75085
G1 X69.512 Y119.461 E32.7757
G1 X69.141 Y118.811 E32.8006
G1 X68.842 Y118.125 E32.82549
G1 X68.618 Y117.411 E32.85038
G1 X68.471 Y116.678 E32.87524
G1 X68.399 Y115.674 E32.90872
G1 X68.399 Y109.908 E33.1005
G1 X68.439 Y109.161 E33.12538
G1 X68.558 Y108.423 E33.15024
G1 X68.756 Y107.701 E33.17514
G1 X69.029 Y107.005 E33.20001
G1 X69.376 Y106.342 E33.2249
G1 X69.791 Y105.719 E33.24979
G1 X70.399 Y105.016 E33.28071
G1 X70.399 Y74.568 E34.29341
G1 X69.949 Y74.067 E34.31581
G1 X69.512 Y73.461 E34.34066
G1 X69.141 Y72.811 E34.36555
G1 X68.842 Y72.125 E34.39044
G1 X68.618 Y71.411 E34.41533
G1 X68.471 Y70.678 E34.4402
G1 X68.399 Y69.674 E34.47368
G1 X68.399 Y65.908 E34.59893
G1 X68.439 Y65.161 E34.62381
G1 X68.558 Y64.423 E34.64868
G1 X68.756 Y63.701 E34.67358
G1 X69.029 Y63.005 E34.69844
G1 X69.376 Y62.342 E34.72333
G1 X69.791 Y61.719 E34.74823
G0 F6000 X70.188 Y61.858
G1 F1200 X70.732 Y61.241 E34.77559
G1 X70.849 Y61.124 E34.78109
G1 X71.39 Y60.64 E34.80524
G1 X71.981 Y60.217 E34.82941
G1 X72.615 Y59.863 E34.85356
G1 X73.284 Y59.58 E34.87772
G1 X73.98 Y59.372 E34.90188
G1 X74.695 Y59.242 E34.92605
G1 X75.516 Y59.191 E34.95341
G1 X175.282 Y59.191 E38.27164
G1 X176.007 Y59.231 E38.29579
G1 X176.724 Y59.35 E38.31997
G1 X177.423 Y59.548 E38.34413
G1 X178.096 Y59.821 E38.36829
G1 X178.735 Y60.166 E38.39244
G1 X179.332 Y60.58 E38.4166
G1 X179.949 Y61.124 E38.44396
G1 X180.066 Y61.241 E38.44946
G1 X180.55 Y61.782 E38.47361
G1 X180.973 Y62.373 E38.49778
G1 X181.327 Y63.007 E38.52193
G1 X181.61 Y63.676 E38.54609
G1 X181.818 Y64.372 E38.57025
G1 X181.948 Y65.087 E38.59442
G1 X181.999 Y65.908 E38.62178
G1 X181.999 Y69.674 E38.74704
G1 X181.959 Y70.399 E38.77119
G1 X181.84 Y71.116 E38.79536
G1 X181.642 Y71.815 E38.81953
G1 X181.369 Y72.488 E38.84368
G1 X181.024 Y73.127 E38.86784
G1 X180.61 Y73.724 E38.892
G1 X180.066 Y74.341 E38.91936
G1 X179.999 Y74.408 E38.92251
G1 X179.999 Y105.174 E39.94579
G1 X180.066 Y105.241 E39.94894
G1 X180.55 Y105.782 E39.97309
G1 X180.973 Y106.373 E39.99726
G1 X181.327 Y107.007 E40.02141
G1 X181.61 Y107.676 E40.04557
G1 X181.818 Y108.372 E40.06973
G1 X181.948 Y109.087 E40.0939
G1 X181.999 Y109.908 E40.12126
G1 X181.999 Y115.674 E40.31304
G1 X181.959 Y116.399 E40.33719
G1 X181.84 Y117.116 E40.36136
G1 X181.642 Y117.815 E40.38553
G1 X181.369 Y118.488 E40.40968
G1 X181.024 Y119.127 E40.43384
G1 X180.61 Y119.724 E40.458
G1 X180.066 Y120.341 E40.48536
G1 X179.949 Y120.458 E40.49086
G1 X179.408 Y120.942 E40.51501
G1 X178.817 Y121.365 E40.53918
G1 X178.183 Y121.719 E40.56333
G1 X177.514 Y122.002 E40.58749
G1 X176.818 Y122.21 E40.61165
G1 X176.103 Y122.34 E40.63582
G1 X175.282 Y122.391 E40.66318
G1 X75.516 Y122.391 E43.98141
G1 X74.791 Y122.351 E44.00556
G1 X74.074 Y122.232 E44.02973
G1 X73.375 Y122.034 E44.0539
G1 X72.702 Y121.761 E44.07805
G1 X72.063 Y121.416 E44.10221
G1 X71.466 Y121.002 E44.12637
G1 X70.849 Y120.458 E44.15373
G1 X70.732 Y120.341 E44.15923
G1 X70.248 Y119.8 E44.18338
G1 X69.825 Y119.209 E44.20755
G1 X69.471 Y118.575 E44.2317
G1 X69.188 Y117.906 E44.25586
G1 X68.98 Y117.21 E44.28002
G1 X68.85 Y116.495 E44.30419
G1 X68.799 Y115.674 E44.33155
G1 X68.799 Y109.908 E44.52333
G1 X68.839 Y109.183 E44.54748
G1 X68.958 Y108.466 E44.57165
G1 X69.156 Y107.767 E44.59582
G1 X69.429 Y107.094 E44.61997
G1 X69.774 Y106.455 E44.64413
G1 X70.188 Y105.858 E44.66829
G1 X70.732 Y105.241 E44.69565
G1 X70.799 Y105.174 E44.6988
G1 X70.799 Y74.408 E45.72208
G1 X70.732 Y74.341 E45.72523
G1 X70.248 Y73.8 E45.74938
G1 X69.825 Y73.209 E45.77355
G1 X69.471 Y72.575 E45.7977
G1 X69.188 Y71.906 E45.82186
G1 X68.98 Y71.21 E45.84602
G1 X68.85 Y70.495 E45.87019
G1 X68.799 Y69.674 E45.89755
G1 X68.799 Y65.908 E46.02281
G1 X68.839 Y65.183 E46.04696
G1 X68.958 Y64.466 E46.07113
G1 X69.156 Y63.767 E46.0953
G1 X69.429 Y63.094 E46.11945
G1 X69.774 Y62.455 E46.1436
G1 X70.188 Y61.858 E46.16777
G0 F6000 X70.584 Y62.002
G1 F1200 X71.015 Y61.524 E46.18917
G1 X71.132 Y61.407 E46.19468
G1 X71.657 Y60.938 E46.21809
G1 X72.232 Y60.532 E46.2415
G1 X72.85 Y60.194 E46.26493
G1 X73.501 Y59.927 E46.28834
G1 X74.179 Y59.737 E46.31175
G1 X74.874 Y59.624 E46.33517
G1 X75.516 Y59.591 E46.35655
G1 X175.282 Y59.591 E49.67479
G1 X175.985 Y59.631 E49.69821
G1 X176.679 Y59.75 E49.72162
G1 X177.354 Y59.948 E49.74502
G1 X178.003 Y60.22 E49.76843
G1 X178.617 Y60.565 E49.79185
G1 X179.188 Y60.976 E49.81525
G1 X179.666 Y61.407 E49.83666
G1 X179.783 Y61.524 E49.84216
G1 X180.252 Y62.049 E49.86557
G1 X180.658 Y62.624 E49.88899
G1 X180.996 Y63.242 E49.91241
G1 X181.263 Y63.893 E49.93582
G1 X181.453 Y64.571 E49.95924
G1 X181.566 Y65.266 E49.98266
G1 X181.599 Y65.908 E50.00404
G1 X181.599 Y69.674 E50.12929
G1 X181.559 Y70.377 E50.15271
G1 X181.44 Y71.071 E50.17613
G1 X181.242 Y71.746 E50.19953
G1 X180.97 Y72.395 E50.22294
G1 X180.625 Y73.009 E50.24636
G1 X180.214 Y73.58 E50.26976
G1 X179.783 Y74.058 E50.29117
G1 X179.599 Y74.235 E50.29966
G1 X179.599 Y105.347 E51.33445
G1 X179.783 Y105.524 E51.34294
G1 X180.252 Y106.049 E51.36635
G1 X180.658 Y106.624 E51.38977
G1 X180.996 Y107.242 E51.41319
G1 X181.263 Y107.893 E51.4366
G1 X181.453 Y108.571 E51.46002
G1 X181.566 Y109.266 E51.48343
G1 X181.599 Y109.908 E51.50482
G1 X181.599 Y115.674 E51.69659
G1 X181.559 Y116.377 E51.72001
G1 X181.44 Y117.071 E51.74343
G1 X181.242 Y117.746 E51.76683
G1 X180.97 Y118.395 E51.79023
G1 X180.625 Y119.009 E51.81366
G1 X180.214 Y119.58 E51.83706
G1 X179.783 Y120.058 E51.85847
G1 X179.666 Y120.175 E51.86397
G1 X179.141 Y120.644 E51.88738
G1 X178.566 Y121.05 E51.91079
G1 X177.948 Y121.388 E51.93422
G1 X177.297 Y121.655 E51.95763
G1 X176.619 Y121.845 E51.98104
G1 X175.924 Y121.958 E52.00446
G1 X175.282 Y121.991 E52.02585
G1 X75.516 Y121.991 E55.34408
G1 X74.813 Y121.951 E55.3675
G1 X74.119 Y121.832 E55.39091
G1 X73.444 Y121.634 E55.41431
G1 X72.795 Y121.362 E55.43772
G1 X72.181 Y121.017 E55.46114
G1 X71.61 Y120.606 E55.48454
G1 X71.132 Y120.175 E55.50595
G1 X71.015 Y120.058 E55.51145
G1 X70.546 Y119.533 E55.53487
G1 X70.14 Y118.958 E55.55828
G1 X69.802 Y118.34 E55.5817
G1 X69.535 Y117.689 E55.60511
G1 X69.345 Y117.011 E55.62853
G1 X69.232 Y116.316 E55.65195
G1 X69.199 Y115.674 E55.67333
G1 X69.199 Y109.908 E55.86511
G1 X69.239 Y109.205 E55.88852
G1 X69.358 Y108.511 E55.91194
G1 X69.556 Y107.836 E55.93534
G1 X69.828 Y107.187 E55.95875
G1 X70.173 Y106.573 E55.98217
G1 X70.584 Y106.002 E56.00557
G1 X71.015 Y105.524 E56.02698
G1 X71.199 Y105.347 E56.03547
G1 X71.199 Y74.235 E57.07026
G1 X71.015 Y74.058 E57.07875
G1 X70.546 Y73.533 E57.10216
G1 X70.14 Y72.958 E57.12558
G1 X69.802 Y72.34 E57.149
G1 X69.535 Y71.689 E57.17241
G1 X69.345 Y71.011 E57.19583
G1 X69.232 Y70.316 E57.21925
G1 X69.199 Y69.674 E57.24063
G1 X69.199 Y65.908 E57.36588
G1 X69.239 Y65.205 E57.3893
