;FLAVOR:Marlin
;TIME:6169
;Filament used: 4.13757m
;Layer height: 0.2
;MINX:66.821
;MINY:57.972
;MINZ:0.2
;MAXX:182.421
;MAXY:123.572
;MAXZ:3
;Generated with Cura_SteamEngine 4.8.0
M140 S60
M105
M190 S60
M104 S200
M105
M109 S200
M82 ;absolute extrusion mode
; Ender 3 Custom Start G-code
G92 E0 ; Reset Extruder
G28 ; Home all axes
G1 Z2.0 F3000 ; Move Z Axis up little to prevent scratching of Heat Bed
G1 X0.1 Y20 Z0.3 F5000.0 ; Move to start position
G1 X0.1 Y200.0 Z0.3 F1500.0 E15 ; Draw the first line
G1 X0.4 Y200.0 Z0.3 F5000.0 ; Move to side a little
G1 X0.4 Y20 Z0.3 F1500.0 E30 ; Draw the second line
G92 E0 ; Reset Extruder
G1 Z2.0 F3000 ; Move Z Axis up little to prevent scratching of Heat Bed
G1 X5 Y20 Z0.3 F5000.0 ; Move over to prevent blob squish
G92 E0
G92 E0
G1 F2700 E-5
;LAYER_COUNT:15
;LAYER:0
M107
G0 F6000 X68.701 Y60.811 Z0.2
;TYPE:SKIRT
G1 F2700 E0
G1 F1200 X69.106 Y60.374 E0.01982
G1 X69.223 Y60.257 E0.02532
G1 X69.809 Y59.727 E0.0516
G1 X70.445 Y59.26 E0.07784
G1 X71.125 Y58.859 E0.1041
G1 X71.843 Y58.529 E0.13038
G1 X72.59 Y58.274 E0.15664
G1 X73.359 Y58.095 E0.1829
G1 X74.143 Y57.995 E0.20918
G1 X74.738 Y57.972 E0.22899
G1 X174.504 Y57.972 E3.54722
G1 X175.293 Y58.012 E3.57349
G1 X176.073 Y58.131 E3.59974
G1 X176.838 Y58.329 E3.62602
G1 X177.578 Y58.603 E3.65227
G1 X178.287 Y58.951 E3.67853
G1 X178.958 Y59.369 E3.70483
G1 X179.582 Y59.852 E3.73107
G1 X180.019 Y60.257 E3.75089
G1 X180.136 Y60.374 E3.75639
G1 X180.666 Y60.96 E3.78267
G1 X181.133 Y61.596 E3.80892
G1 X181.534 Y62.276 E3.83517
G1 X181.864 Y62.994 E3.86146
G1 X182.119 Y63.741 E3.88771
G1 X182.298 Y64.51 E3.91397
G1 X182.398 Y65.294 E3.94026
G1 X182.421 Y65.889 E3.96006
G1 X182.421 Y115.655 E5.61529
G1 X182.381 Y116.444 E5.64156
G1 X182.262 Y117.224 E5.6678
G1 X182.064 Y117.989 E5.69409
G1 X181.79 Y118.729 E5.72033
G1 X181.442 Y119.438 E5.7466
G1 X181.024 Y120.109 E5.77289
G1 X180.541 Y120.733 E5.79914
G1 X180.136 Y121.17 E5.81896
G1 X180.019 Y121.287 E5.82446
G1 X179.433 Y121.817 E5.85074
G1 X178.797 Y122.284 E5.87698
G1 X178.117 Y122.685 E5.90324
G1 X177.399 Y123.015 E5.92952
G1 X176.652 Y123.27 E5.95578
G1 X175.883 Y123.449 E5.98204
G1 X175.099 Y123.549 E6.00832
G1 X174.504 Y123.572 E6.02813
G1 X74.738 Y123.572 E9.34636
G1 X73.949 Y123.532 E9.37263
G1 X73.169 Y123.413 E9.39888
G1 X72.404 Y123.215 E9.42516
G1 X71.664 Y122.941 E9.45141
G1 X70.955 Y122.593 E9.47767
G1 X70.284 Y122.175 E9.50397
G1 X69.66 Y121.692 E9.53021
G1 X69.223 Y121.287 E9.55003
G1 X69.106 Y121.17 E9.55553
G1 X68.576 Y120.584 E9.58181
G1 X68.109 Y119.948 E9.60806
G1 X67.708 Y119.268 E9.63431
G1 X67.378 Y118.55 E9.6606
G1 X67.123 Y117.803 E9.68685
G1 X66.944 Y117.034 E9.71311
G1 X66.844 Y116.25 E9.7394
G1 X66.821 Y115.655 E9.7592
G1 X66.821 Y65.889 E11.41443
G1 X66.861 Y65.1 E11.4407
G1 X66.98 Y64.32 E11.46694
G1 X67.178 Y63.555 E11.49323
G1 X67.452 Y62.815 E11.51947
G1 X67.8 Y62.106 E11.54574
G1 X68.218 Y61.435 E11.57203
G1 X68.701 Y60.811 E11.59828
G0 F6000 X69.096 Y60.966
G1 F1200 X69.388 Y60.656 E11.61244
G1 X69.505 Y60.539 E11.61795
G1 X70.077 Y60.025 E11.64353
G1 X70.699 Y59.572 E11.66912
G1 X71.364 Y59.186 E11.69469
G1 X72.066 Y58.871 E11.72028
G1 X72.797 Y58.631 E11.74587
G1 X73.548 Y58.468 E11.77143
G1 X74.313 Y58.384 E11.79703
G1 X74.738 Y58.372 E11.81117
G1 X174.504 Y58.372 E15.1294
G1 X175.272 Y58.412 E15.15498
G1 X176.032 Y58.531 E15.18057
G1 X176.775 Y58.729 E15.20614
G1 X177.494 Y59.003 E15.23173
G1 X178.18 Y59.35 E15.2573
G1 X178.827 Y59.766 E15.28289
G1 X179.427 Y60.247 E15.30846
G1 X179.737 Y60.539 E15.32263
G1 X179.854 Y60.656 E15.32813
G1 X180.368 Y61.228 E15.35371
G1 X180.821 Y61.85 E15.3793
G1 X181.207 Y62.515 E15.40488
G1 X181.522 Y63.217 E15.43047
G1 X181.762 Y63.948 E15.45606
G1 X181.925 Y64.699 E15.48162
G1 X182.009 Y65.464 E15.50721
G1 X182.021 Y65.889 E15.52135
G1 X182.021 Y115.655 E17.17658
G1 X181.981 Y116.423 E17.20216
G1 X181.862 Y117.183 E17.22774
G1 X181.664 Y117.926 E17.25332
G1 X181.39 Y118.645 E17.27891
G1 X181.043 Y119.331 E17.30448
G1 X180.627 Y119.978 E17.33006
G1 X180.146 Y120.578 E17.35564
G1 X179.854 Y120.888 E17.3698
G1 X179.737 Y121.005 E17.37531
G1 X179.165 Y121.519 E17.40088
G1 X178.543 Y121.972 E17.42648
G1 X177.878 Y122.358 E17.45205
G1 X177.176 Y122.673 E17.47764
G1 X176.445 Y122.913 E17.50323
G1 X175.694 Y123.076 E17.52879
G1 X174.929 Y123.16 E17.55439
G1 X174.504 Y123.172 E17.56853
G1 X74.738 Y123.172 E20.88676
G1 X73.97 Y123.132 E20.91234
G1 X73.21 Y123.013 E20.93793
G1 X72.467 Y122.815 E20.9635
G1 X71.748 Y122.541 E20.98909
G1 X71.062 Y122.194 E21.01466
G1 X70.415 Y121.778 E21.04024
G1 X69.815 Y121.297 E21.06582
G1 X69.505 Y121.005 E21.07999
G1 X69.388 Y120.888 E21.08549
G1 X68.874 Y120.316 E21.11107
G1 X68.421 Y119.694 E21.13666
G1 X68.035 Y119.029 E21.16223
G1 X67.72 Y118.327 E21.18783
G1 X67.48 Y117.596 E21.21342
G1 X67.317 Y116.845 E21.23898
G1 X67.233 Y116.08 E21.26457
G1 X67.221 Y115.655 E21.27871
G1 X67.221 Y65.889 E22.93394
G1 X67.261 Y65.121 E22.95952
G1 X67.38 Y64.361 E22.9851
G1 X67.578 Y63.618 E23.01068
G1 X67.852 Y62.899 E23.03627
G1 X68.199 Y62.213 E23.06184
G1 X68.615 Y61.566 E23.08742
G1 X69.096 Y60.966 E23.113
G0 F6000 X69.013 Y61.7
G1 F1200 X69.671 Y60.939 E23.14646
G1 X69.788 Y60.822 E23.15196
G1 X70.345 Y60.322 E23.17686
G1 X70.951 Y59.885 E23.20171
G1 X71.601 Y59.514 E23.2266
G1 X72.287 Y59.215 E23.25149
G1 X73.001 Y58.991 E23.27638
G1 X73.734 Y58.844 E23.30124
G1 X74.738 Y58.772 E23.33472
G1 X174.504 Y58.772 E26.65295
G1 X175.251 Y58.812 E26.67783
G1 X175.989 Y58.931 E26.7027
G1 X176.711 Y59.129 E26.7276
G1 X177.407 Y59.402 E26.75246
G1 X178.07 Y59.749 E26.77735
G1 X178.693 Y60.164 E26.80225
G1 X179.454 Y60.822 E26.83571
G1 X179.571 Y60.939 E26.84121
G1 X180.071 Y61.496 E26.86611
G1 X180.508 Y62.102 E26.89096
G1 X180.879 Y62.752 E26.91585
G1 X181.178 Y63.438 E26.94074
G1 X181.402 Y64.152 E26.96563
G1 X181.549 Y64.885 E26.99049
G1 X181.621 Y65.889 E27.02397
G1 X181.621 Y115.655 E28.6792
G1 X181.581 Y116.402 E28.70408
G1 X181.462 Y117.14 E28.72894
G1 X181.264 Y117.862 E28.75384
G1 X180.991 Y118.558 E28.77871
G1 X180.644 Y119.221 E28.8036
G1 X180.229 Y119.844 E28.82849
G1 X179.571 Y120.605 E28.86195
G1 X179.454 Y120.722 E28.86746
G1 X178.897 Y121.222 E28.89235
G1 X178.291 Y121.659 E28.9172
G1 X177.641 Y122.03 E28.9421
G1 X176.955 Y122.329 E28.96699
G1 X176.241 Y122.553 E28.99187
G1 X175.508 Y122.7 E29.01674
G1 X174.504 Y122.772 E29.05022
G1 X74.738 Y122.772 E32.36845
G1 X73.991 Y122.732 E32.39333
G1 X73.253 Y122.613 E32.41819
G1 X72.531 Y122.415 E32.44309
G1 X71.835 Y122.142 E32.46796
G1 X71.172 Y121.795 E32.49285
G1 X70.549 Y121.38 E32.51775
G1 X69.788 Y120.722 E32.55121
G1 X69.671 Y120.605 E32.55671
G1 X69.171 Y120.048 E32.58161
G1 X68.734 Y119.442 E32.60645
G1 X68.363 Y118.792 E32.63135
G1 X68.064 Y118.106 E32.65624
G1 X67.84 Y117.392 E32.68113
G1 X67.693 Y116.659 E32.70599
G1 X67.621 Y115.655 E32.73947
G1 X67.621 Y65.889 E34.39469
G1 X67.661 Y65.142 E34.41957
G1 X67.78 Y64.404 E34.44444
G1 X67.978 Y63.682 E34.46934
G1 X68.251 Y62.986 E34.4942
G1 X68.598 Y62.323 E34.51909
G1 X69.013 Y61.7 E34.54399
G0 F6000 X69.41 Y61.839
G1 F1200 X69.954 Y61.222 E34.57135
G1 X70.071 Y61.105 E34.57685
G1 X70.612 Y60.621 E34.601
G1 X71.203 Y60.198 E34.62517
G1 X71.837 Y59.844 E34.64932
G1 X72.506 Y59.561 E34.67348
G1 X73.202 Y59.353 E34.69764
G1 X73.917 Y59.223 E34.72181
G1 X74.738 Y59.172 E34.74917
G1 X174.504 Y59.172 E38.0674
G1 X175.229 Y59.212 E38.09155
G1 X175.946 Y59.331 E38.11573
G1 X176.645 Y59.529 E38.13989
G1 X177.318 Y59.802 E38.16405
G1 X177.957 Y60.147 E38.1882
G1 X178.554 Y60.561 E38.21236
G1 X179.171 Y61.105 E38.23972
G1 X179.288 Y61.222 E38.24522
G1 X179.772 Y61.763 E38.26937
G1 X180.195 Y62.354 E38.29354
G1 X180.549 Y62.988 E38.31769
G1 X180.832 Y63.657 E38.34185
G1 X181.04 Y64.353 E38.36601
G1 X181.17 Y65.068 E38.39018
G1 X181.221 Y65.889 E38.41754
G1 X181.221 Y115.655 E40.07277
G1 X181.181 Y116.38 E40.09692
G1 X181.062 Y117.097 E40.12109
G1 X180.864 Y117.796 E40.14525
G1 X180.591 Y118.469 E40.16941
G1 X180.246 Y119.108 E40.19356
G1 X179.832 Y119.705 E40.21773
G1 X179.288 Y120.322 E40.24509
G1 X179.171 Y120.439 E40.25059
G1 X178.63 Y120.923 E40.27473
G1 X178.039 Y121.346 E40.29891
G1 X177.405 Y121.7 E40.32306
G1 X176.736 Y121.983 E40.34722
G1 X176.04 Y122.191 E40.37138
G1 X175.325 Y122.321 E40.39555
G1 X174.504 Y122.372 E40.42291
G1 X74.738 Y122.372 E43.74114
G1 X74.013 Y122.332 E43.76529
G1 X73.296 Y122.213 E43.78946
G1 X72.597 Y122.015 E43.81363
G1 X71.924 Y121.742 E43.83778
G1 X71.285 Y121.397 E43.86193
G1 X70.688 Y120.983 E43.8861
G1 X70.071 Y120.439 E43.91346
G1 X69.954 Y120.322 E43.91896
G1 X69.47 Y119.781 E43.9431
G1 X69.047 Y119.19 E43.96728
G1 X68.693 Y118.556 E43.99143
G1 X68.41 Y117.887 E44.01559
G1 X68.202 Y117.191 E44.03975
G1 X68.072 Y116.476 E44.06392
G1 X68.021 Y115.655 E44.09128
G1 X68.021 Y65.889 E45.7465
G1 X68.061 Y65.164 E45.77065
G1 X68.18 Y64.447 E45.79483
G1 X68.378 Y63.748 E45.81899
G1 X68.651 Y63.075 E45.84315
G1 X68.996 Y62.436 E45.8673
G1 X69.41 Y61.839 E45.89146
G0 F6000 X69.806 Y61.983
G1 F1200 X70.237 Y61.505 E45.91287
G1 X70.354 Y61.388 E45.91837
G1 X70.879 Y60.919 E45.94179
G1 X71.454 Y60.513 E45.9652
G1 X72.072 Y60.175 E45.98863
G1 X72.723 Y59.908 E46.01203
G1 X73.401 Y59.718 E46.03545
G1 X74.096 Y59.605 E46.05887
G1 X74.738 Y59.572 E46.08025
G1 X174.504 Y59.572 E49.39848
G1 X175.207 Y59.612 E49.4219
G1 X175.901 Y59.731 E49.44532
G1 X176.576 Y59.929 E49.46872
G1 X177.225 Y60.201 E49.49212
G1 X177.839 Y60.546 E49.51554
G1 X178.41 Y60.957 E49.53894
G1 X178.888 Y61.388 E49.56035
G1 X179.005 Y61.505 E49.56585
G1 X179.474 Y62.03 E49.58927
G1 X179.88 Y62.605 E49.61268
G1 X180.218 Y63.223 E49.63611
G1 X180.485 Y63.874 E49.65951
G1 X180.675 Y64.552 E49.68293
G1 X180.788 Y65.247 E49.70635
G1 X180.821 Y65.889 E49.72773
G1 X180.821 Y115.655 E51.38295
G1 X180.781 Y116.358 E51.40637
G1 X180.662 Y117.052 E51.42979
G1 X180.464 Y117.727 E51.45319
G1 X180.192 Y118.376 E51.4766
G1 X179.847 Y118.99 E51.50002
G1 X179.436 Y119.561 E51.52342
G1 X179.005 Y120.039 E51.54483
G1 X178.888 Y120.156 E51.55033
G1 X178.363 Y120.625 E51.57374
G1 X177.788 Y121.031 E51.59716
G1 X177.17 Y121.369 E51.62058
G1 X176.519 Y121.636 E51.64399
G1 X175.841 Y121.826 E51.66741
G1 X175.146 Y121.939 E51.69083
G1 X174.504 Y121.972 E51.71221
G1 X74.738 Y121.972 E55.03044
G1 X74.035 Y121.932 E55.05386
G1 X73.341 Y121.813 E55.07728
G1 X72.666 Y121.615 E55.10067
G1 X72.017 Y121.343 E55.12408
G1 X71.403 Y120.998 E55.1475
G1 X70.832 Y120.587 E55.1709
G1 X70.354 Y120.156 E55.19231
G1 X70.237 Y120.039 E55.19781
G1 X69.768 Y119.514 E55.22123
G1 X69.362 Y118.939 E55.24464
G1 X69.024 Y118.321 E55.26807
G1 X68.757 Y117.67 E55.29147
G1 X68.567 Y116.992 E55.31489
G1 X68.454 Y116.297 E55.33831
G1 X68.421 Y115.655 E55.35969
G1 X68.421 Y65.889 E57.01491
G1 X68.461 Y65.186 E57.03833
G1 X68.58 Y64.492 E57.06175
G1 X68.778 Y63.817 E57.08515
G1 X69.05 Y63.168 E57.10855
G1 X69.395 Y62.554 E57.13198
G1 X69.806 Y61.983 E57.15538
G0 F6000 X70.203 Y62.131
G1 F1200 X70.52 Y61.788 E57.17091
G1 X70.637 Y61.671 E57.17642
G1 X71.146 Y61.218 E57.19908
G1 X71.704 Y60.829 E57.2217
G1 X72.304 Y60.507 E57.24435
G1 X72.938 Y60.258 E57.26701
G1 X73.597 Y60.085 E57.28967
G1 X74.271 Y59.991 E57.3123
G1 X74.738 Y59.972 E57.32785
G1 X174.504 Y59.972 E60.64608
G1 X175.184 Y60.012 E60.66873
G1 X175.854 Y60.131 E60.69137
G1 X176.506 Y60.328 E60.71402
G1 X177.13 Y60.6 E60.73666
G1 X177.718 Y60.944 E60.75932
G1 X178.262 Y61.354 E60.78197
G1 X178.605 Y61.671 E60.79751
G1 X178.722 Y61.788 E60.80301
G1 X179.175 Y62.297 E60.82568
G1 X179.564 Y62.855 E60.8483
G1 X179.886 Y63.455 E60.87095
G1 X180.135 Y64.089 E60.8936
G1 X180.308 Y64.748 E60.91626
G1 X180.402 Y65.422 E60.9389
G1 X180.421 Y65.889 E60.95444
G1 X180.421 Y115.655 E62.60967
G1 X180.381 Y116.335 E62.63232
G1 X180.262 Y117.005 E62.65496
G1 X180.065 Y117.657 E62.67761
G1 X179.793 Y118.281 E62.70025
G1 X179.449 Y118.869 E62.72291
G1 X179.039 Y119.413 E62.74557
G1 X178.722 Y119.756 E62.7611
G1 X178.605 Y119.873 E62.7666
G1 X178.096 Y120.326 E62.78927
G1 X177.538 Y120.715 E62.81189
G1 X176.938 Y121.037 E62.83454
G1 X176.304 Y121.286 E62.85719
G1 X175.645 Y121.459 E62.87985
G1 X174.971 Y121.553 E62.90249
G1 X174.504 Y121.572 E62.91803
G1 X74.738 Y121.572 E66.23626
G1 X74.058 Y121.532 E66.25892
G1 X73.388 Y121.413 E66.28155
G1 X72.736 Y121.216 E66.30421
G1 X72.112 Y120.944 E66.32685
G1 X71.524 Y120.6 E66.34951
G1 X70.98 Y120.19 E66.37216
G1 X70.637 Y119.873 E66.3877
G1 X70.52 Y119.756 E66.3932
G1 X70.067 Y119.247 E66.41586
G1 X69.678 Y118.689 E66.43849
G1 X69.356 Y118.089 E66.46113
G1 X69.107 Y117.455 E66.48379
G1 X68.934 Y116.796 E66.50645
G1 X68.84 Y116.122 E66.52909
G1 X68.821 Y115.655 E66.54463
G1 X68.821 Y65.889 E68.19985
G1 X68.861 Y65.209 E68.22251
G1 X68.98 Y64.539 E68.24514
G1 X69.177 Y63.887 E68.2678
G1 X69.449 Y63.263 E68.29044
G1 X69.793 Y62.675 E68.3131
G1 X70.203 Y62.131 E68.33575
G0 F6000 X70.803 Y62.071
G1 F1200 X70.92 Y61.954 E68.34126
G1 X71.412 Y61.518 E68.36312
G1 X71.953 Y61.146 E68.38496
G1 X72.535 Y60.842 E68.4068
G1 X73.15 Y60.611 E68.42865
G1 X73.789 Y60.456 E68.45052
G1 X74.738 Y60.372 E68.4822
G1 X174.504 Y60.372 E71.80043
G1 X175.16 Y60.412 E71.82229
G1 X175.806 Y60.531 E71.84414
G1 X176.433 Y60.728 E71.866
G1 X177.031 Y61 E71.88785
G1 X177.592 Y61.342 E71.9097
G1 X178.322 Y61.954 E71.94139
G1 X178.439 Y62.071 E71.94689
G1 X178.875 Y62.563 E71.96876
G1 X179.247 Y63.104 E71.99059
G1 X179.551 Y63.686 E72.01243
G1 X179.782 Y64.301 E72.03428
G1 X179.937 Y64.94 E72.05615
G1 X180.021 Y65.889 E72.08784
G1 X180.021 Y115.655 E73.74306
G1 X179.981 Y116.311 E73.76492
G1 X179.862 Y116.957 E73.78677
G1 X179.665 Y117.584 E73.80863
G1 X179.393 Y118.182 E73.83048
G1 X179.051 Y118.743 E73.85233
G1 X178.439 Y119.473 E73.88402
G1 X178.322 Y119.59 E73.88952
G1 X177.83 Y120.026 E73.91138
G1 X177.289 Y120.398 E73.93322
G1 X176.707 Y120.702 E73.95506
G1 X176.092 Y120.933 E73.97691
G1 X175.453 Y121.088 E73.99878
G1 X174.504 Y121.172 E74.03047
G1 X74.738 Y121.172 E77.3487
G1 X74.082 Y121.132 E77.37056
G1 X73.436 Y121.013 E77.3924
G1 X72.809 Y120.816 E77.41426
G1 X72.211 Y120.544 E77.43611
G1 X71.65 Y120.202 E77.45797
G1 X70.92 Y119.59 E77.48965
G1 X70.803 Y119.473 E77.49515
G1 X70.367 Y118.981 E77.51702
G1 X69.995 Y118.44 E77.53886
G1 X69.691 Y117.858 E77.56069
G1 X69.46 Y117.243 E77.58254
G1 X69.305 Y116.604 E77.60441
G1 X69.221 Y115.655 E77.6361
G1 X69.221 Y65.889 E79.29133
G1 X69.261 Y65.233 E79.31318
G1 X69.38 Y64.587 E79.33503
G1 X69.577 Y63.96 E79.35689
G1 X69.849 Y63.362 E79.37874
G1 X70.191 Y62.801 E79.40059
G1 X70.803 Y62.071 E79.43228
G0 F6000 X71.085 Y62.353
G1 F1200 X71.202 Y62.236 E79.43778
G1 X71.677 Y61.819 E79.4588
G1 X72.2 Y61.464 E79.47983
G1 X72.764 Y61.178 E79.50086
G1 X73.359 Y60.966 E79.52187
G1 X73.977 Y60.83 E79.54292
G1 X74.738 Y60.772 E79.5683
G1 X174.504 Y60.772 E82.88653
G1 X175.135 Y60.812 E82.90756
G1 X175.756 Y60.931 E82.92859
G1 X176.356 Y61.128 E82.94959
G1 X176.928 Y61.399 E82.97065
G1 X177.46 Y61.739 E82.99165
G1 X178.04 Y62.236 E83.01705
G1 X178.157 Y62.353 E83.02255
G1 X178.574 Y62.828 E83.04358
G1 X178.929 Y63.351 E83.0646
G1 X179.215 Y63.915 E83.08563
G1 X179.427 Y64.51 E83.10664
G1 X179.563 Y65.128 E83.12769
G1 X179.621 Y65.889 E83.15307
G1 X179.621 Y115.655 E84.8083
G1 X179.581 Y116.286 E84.82933
G1 X179.462 Y116.907 E84.85036
G1 X179.265 Y117.507 E84.87136
G1 X178.994 Y118.079 E84.89241
G1 X178.654 Y118.611 E84.91341
G1 X178.157 Y119.191 E84.93882
G1 X178.04 Y119.308 E84.94432
G1 X177.565 Y119.725 E84.96534
G1 X177.042 Y120.08 E84.98637
G1 X176.478 Y120.366 E85.0074
G1 X175.883 Y120.578 E85.02841
G1 X175.265 Y120.714 E85.04945
G1 X174.504 Y120.772 E85.07484
G1 X74.738 Y120.772 E88.39307
G1 X74.107 Y120.732 E88.4141
G1 X73.486 Y120.613 E88.43513
G1 X72.886 Y120.416 E88.45613
G1 X72.314 Y120.145 E88.47718
G1 X71.782 Y119.805 E88.49818
G1 X71.202 Y119.308 E88.52359
G1 X71.085 Y119.191 E88.52909
G1 X70.668 Y118.716 E88.55011
G1 X70.313 Y118.193 E88.57114
G1 X70.027 Y117.629 E88.59217
G1 X69.815 Y117.034 E88.61318
